X:51
T:Le Valet rus
C:trad.
A:Alsace
O:France
Z:S. Piron
M:2/4 et 3/4
L:1/8
Q:1/4=130
K:C
cce|:g2g2a^f|gcce|g2g2a^f|gcce|g2g2|d>ddfed|cc ce|g^fg2de|cc ce:|
